X:1
T:Vigilate, 77.73
T:William Henry Monk, 1868
T:Vigilate, 77.73
T:Public Domain
C:William Henry Monk, 1868
Z:Public Domain
%%score ( 1 2 ) ( 3 4 )
L:1/8
M:4/4
K:Eb
V:1 treble 
V:2 treble 
V:3 bass 
V:4 bass 
V:1
 [EG]2 [EG]2 [EA]2 [EG]2 | [Ec]3 [Ec] [EB]4 | [EG]3 [FG] [EG]2 [FG]2 | [EG]2 [FA]2 [DF]4 | %4
 [EG]3 [EG] [EA]2 [EB]2 | [Ec]2 [DB]2 E4 | (E2 DC D2) [DF]2 | E8 |] %8
V:2
 x8 | x8 | x8 | x8 | x8 | x4 E4 | A6 x2 | E8 |] %8
V:3
 [E,B,]2 [E,B,]2 [E,C]2 [E,B,]2 | [F,A,]3 [E,A,] [E,G,]4 | [E,B,]2 [D,=B,]2 [C,C]2 [=B,,D]2 | %3
 [C,C]2 [A,,C]2 [B,,B,]4 | [E,B,]3 [E,B,] [C,C]2 [B,,G,]2 | [A,,A,]2 [B,,A,]2 [C,G,]4 | %6
 ([F,,F,A,]4 B,,2) [B,,A,]2 | [E,,E,G,]8 |] %8
V:4
 x8 | x8 | x8 | x8 | x8 | x8 | x4 B,,2 x2 | x8 |] %8

